assets/images/study/myopia-simplified.svg

<svg xmlns="http://www.w3.org/2000/svg" width="600" height="300" aria-hidden="false" viewBox="0 0 600 300"><path fill="#fff" d="M0 0h600v300H0z"/><ellipse cx="300" cy="150" fill="#fff" stroke="#333" stroke-width="2" rx="150" ry="100"/><path fill="#E6F7FF" stroke="#333" stroke-width="2" d="M150 150q-20-50 0-100 20 50 0 100"/><ellipse cx="200" cy="150" fill="#E6F7FF" stroke="#333" stroke-width="2" rx="25" ry="40"/><path fill="none" stroke="#333" stroke-width="2" d="M450 70q20 80 0 160"/><path stroke="gold" stroke-width="3" d="m100 100 150 50m-150 0h150m-150 50 150-50m0 0 100-30m-100 30h100m-100 0 100 30"/><path stroke="gold" stroke-dasharray="5,3" stroke-width="2" d="m350 120 100-20m-100 50h100m-100 30 100 20"/><circle cx="350" cy="150" r="5" fill="red"/><text x="300" y="240" fill="#333" font-family="Arial" font-size="16" font-size-adjust=".5" text-anchor="middle" text-rendering="optimizeLegibility">Myopia: Light focuses in front of the retina</text><text x="350" y="135" fill="red" font-family="Arial" font-size="14" font-size-adjust=".5" text-anchor="middle" text-rendering="optimizeLegibility">Focal point</text><text x="450" y="60" fill="#333" font-family="Arial" font-size="14" font-size-adjust=".5" text-anchor="middle" text-rendering="optimizeLegibility">Retina</text></svg>

<?xml version="1.0" encoding="UTF-8" standalone="no"?>
<svg width="600" height="300" viewBox="0 0 600 300" xmlns="http://www.w3.org/2000/svg">
  <!-- Background -->
  <rect width="600" height="300" fill="white"/>
  
  <!-- Eye outline -->
  <ellipse cx="300" cy="150" rx="150" ry="100" fill="white" stroke="#333" stroke-width="2"/>
  
  <!-- Cornea -->
  <path d="M150,150 Q130,100 150,50 Q170,100 150,150" fill="#E6F7FF" stroke="#333" stroke-width="2"/>
  
  <!-- Lens -->
  <ellipse cx="200" cy="150" rx="25" ry="40" fill="#E6F7FF" stroke="#333" stroke-width="2"/>
  
  <!-- Retina -->
  <path d="M450,70 Q470,150 450,230" fill="none" stroke="#333" stroke-width="2"/>
  
  <!-- Light rays for myopia -->
  <path d="M100,100 L250,150" stroke="#FFD700" stroke-width="3"/>
  <path d="M100,150 L250,150" stroke="#FFD700" stroke-width="3"/>
  <path d="M100,200 L250,150" stroke="#FFD700" stroke-width="3"/>
  
  <!-- Converged light rays (focusing in front of retina) -->
  <path d="M250,150 L350,120" stroke="#FFD700" stroke-width="3"/>
  <path d="M250,150 L350,150" stroke="#FFD700" stroke-width="3"/>
  <path d="M250,150 L350,180" stroke="#FFD700" stroke-width="3"/>
  
  <!-- Diverged light rays after focal point -->
  <path d="M350,120 L450,100" stroke="#FFD700" stroke-width="2" stroke-dasharray="5,3"/>
  <path d="M350,150 L450,150" stroke="#FFD700" stroke-width="2" stroke-dasharray="5,3"/>
  <path d="M350,180 L450,200" stroke="#FFD700" stroke-width="2" stroke-dasharray="5,3"/>
  
  <!-- Focal point (in front of retina) -->
  <circle cx="350" cy="150" r="5" fill="red"/>
  
  <!-- Labels -->
  <text x="300" y="240" font-family="Arial" font-size="16" text-anchor="middle" fill="#333">Myopia: Light focuses in front of the retina</text>
  <text x="350" y="135" font-family="Arial" font-size="14" text-anchor="middle" fill="red">Focal point</text>
  <text x="450" y="60" font-family="Arial" font-size="14" text-anchor="middle" fill="#333">Retina</text>
</svg>
